X: 4
T:Johnny the Jumper
M:6/8
L:1/8
C:Traditional, deranged by Roger Landes
R:Jig
K:ADor
eAA cBA|eAA f^ga|eAA c/2c/2ce|dBG Bcd|eAA cBA|edc B/2c/2BA|G/2G/2GG g/2g
/2gg|dBG Bcd:||
cBA a/2a/2aa|cBA Bcd|cBA g/2g/2gg|dBG Bcd|cBA a/2a/2aa|edc B/2c/2BA|G/2G
/2GG g/2g/2gg|dBG Bcd:||
